Newaita-dark/apps/22/preferences-plugin.svg

<svg height="22" viewBox="0 0 22 22" width="22" xmlns="http://www.w3.org/2000/svg" xmlns:xlink="http://www.w3.org/1999/xlink"><linearGradient id="a"><stop offset="0" stop-opacity=".27451"/><stop offset="1" stop-opacity="0"/></linearGradient><linearGradient id="b" gradientTransform="matrix(.0096689 0 0 .0429729 2.660556 8.329573)" gradientUnits="userSpaceOnUse" x1="254" x2="254" xlink:href="#a" y1="233.5" y2="254.666672"/><linearGradient id="c"><stop offset="0" stop-opacity=".313726"/><stop offset=".222222" stop-opacity=".27451"/><stop offset="1" stop-opacity="0"/></linearGradient><radialGradient id="d" cx="450.908936" cy="189.579361" gradientTransform="matrix(.00000012 -.0537161 -.0966889 -.00000007 24.242525 42.8122)" gradientUnits="userSpaceOnUse" r="21.166656" xlink:href="#c"/><radialGradient id="e" cx="450.908936" cy="189.579361" gradientTransform="matrix(-.00000012 .0537161 .0966889 .00000007 -14.009612 -6.084733)" gradientUnits="userSpaceOnUse" r="21.166656" xlink:href="#c"/><radialGradient id="f" cx="450.908936" cy="189.579361" gradientTransform="matrix(-.00000012 -.0537161 .0966889 -.00000007 -14.009612 42.8122)" gradientUnits="userSpaceOnUse" r="21.166656" xlink:href="#c"/><radialGradient id="g" cx="450.908936" cy="189.579361" gradientTransform="matrix(.00000012 .0537161 -.0966889 .00000007 24.242522 -6.084734)" gradientUnits="userSpaceOnUse" r="21.166656" xlink:href="#c"/><linearGradient id="h" gradientTransform="matrix(.0096689 0 0 .0429729 9.937294 8.329573)" gradientUnits="userSpaceOnUse" x1="254" x2="254" xlink:href="#a" y1="233.5" y2="254.666672"/><radialGradient id="i" cx="450.908936" cy="189.579361" gradientTransform="matrix(.00000012 -.0537161 -.0966889 -.00000007 31.519263 42.8122)" gradientUnits="userSpaceOnUse" r="21.166656" xlink:href="#c"/><radialGradient id="j" cx="450.908936" cy="189.579361" gradientTransform="matrix(-.00000012 .0537161 .0966889 .00000007 -6.732874 -6.084733)" gradientUnits="userSpaceOnUse" r="21.166656" xlink:href="#c"/><radialGradient id="k" cx="450.908936" cy="189.579361" gradientTransform="matrix(-.00000012 -.0537161 .0966889 -.00000007 -6.732874 42.8122)" gradientUnits="userSpaceOnUse" r="21.166656" xlink:href="#c"/><radialGradient id="l" cx="450.908936" cy="189.579361" gradientTransform="matrix(.00000012 .0537161 -.0966889 .00000007 31.519261 -6.084734)" gradientUnits="userSpaceOnUse" r="21.166656" xlink:href="#c"/><linearGradient id="m" gradientUnits="userSpaceOnUse" x1="8.641124" x2="8.641124" y1="18.36373201286" y2="1.99107567177"><stop offset="0" stop-color="#5c6bc0"/><stop offset="1" stop-color="#7986cb"/></linearGradient><path d="m4.09375 18.363281h2.046875v.910157h-2.046875zm0 0" fill="url(#b)"/><path d="m6.140625 18.363281h1.816406v-.910156h-1.816406zm0 0" fill="url(#d)"/><path d="m4.09375 18.363281h-1.820312v.910157h1.820312zm0 0" fill="url(#e)"/><path d="m4.09375 18.363281h-1.820312v-.910156h1.820312zm0 0" fill="url(#f)"/><path d="m6.140625 18.363281h1.816406v.910157h-1.816406zm0 0" fill="url(#g)"/><path d="m11.371094 18.363281h2.046875v.910157h-2.046875zm0 0" fill="url(#h)"/><path d="m13.417969 18.363281h1.816406v-.910156h-1.816406zm0 0" fill="url(#i)"/><path d="m11.371094 18.363281h-1.820313v.910157h1.820313zm0 0" fill="url(#j)"/><path d="m11.371094 18.363281h-1.820313v-.910156h1.820313zm0 0" fill="url(#k)"/><path d="m13.417969 18.363281h1.816406v.910157h-1.816406zm0 0" fill="url(#l)"/><path d="m8.640625 1.992188c-1.257813 0-2.273437 1.011718-2.273437 2.273437 0 .746094.355468 1.40625.910156 1.820313v.453124h-4.09375c-.253906 0-.453125.203126-.453125.453126v4.09375h.449219c.414062-.550782 1.074218-.910157 1.824218-.910157 1.257813 0 2.273438 1.015625 2.273438 2.277344 0 1.257813-1.015625 2.273437-2.273438 2.273437-.75 0-1.410156-.359374-1.824218-.910156h-.449219v4.09375c0 .25.199219.453125.453125.453125h4.09375v-.453125c-.554688-.414062-.910156-1.074218-.910156-1.820312 0-1.261719 1.015624-2.273438 2.273437-2.273438 1.261719 0 2.273437 1.011719 2.273437 2.273438 0 .746094-.355468 1.40625-.910156 1.820312v.453125h4.09375c.253906 0 .457032-.203125.457032-.453125v-4.09375h.449218c.414063.550782 1.078125.910156 1.824219.910156 1.257813 0 2.273437-1.015624 2.273437-2.273437 0-1.261719-1.015624-2.277344-2.273437-2.277344-.746094 0-1.410156.359375-1.824219.910157h-.449218v-4.09375c0-.25-.203126-.453126-.457032-.453126h-4.09375v-.453124c.554688-.414063.910156-1.074219.910156-1.820313 0-1.261719-1.011718-2.273437-2.273437-2.273437zm0 0" fill="url(#m)"/><path d="m8.640625 1.992188c-1.257813 0-2.273437 1.011718-2.273437 2.273437 0 .054687.003906.113281.007812.167969.085938-1.179688 1.0625-2.101563 2.265625-2.101563s2.179687.921875 2.269531 2.101563c.003906-.054688.003906-.113282.003906-.167969 0-1.261719-1.011718-2.273437-2.273437-2.273437zm-5.457031 4.546874c-.253906 0-.453125.203126-.453125.453126v.34375c0-.253907.199219-.457032.453125-.457032h4.09375v-.339844zm6.820312 0v.339844h4.09375c.253906 0 .457032.203125.457032.457032v-.34375c0-.25-.203126-.453126-.457032-.453126zm6.824219 3.636719c-.746094 0-1.410156.359375-1.824219.910157h-.449218v.34375h.449218c.414063-.554688 1.078125-.910157 1.824219-.910157 1.203125 0 2.179687.921875 2.265625 2.101563.003906-.054688.007812-.113282.007812-.167969 0-1.261719-1.015624-2.277344-2.273437-2.277344zm-9.558594 2.445313c-.085937 1.179687-1.0625 2.105468-2.265625 2.105468-.75 0-1.410156-.359374-1.824218-.910156h-.449219v.339844h.449219c.414062.554688 1.074218.910156 1.824218.910156 1.257813 0 2.273438-1.015625 2.273438-2.273437 0-.058594-.003906-.113281-.007813-.171875zm-.894531 3.636718c-.003906.058594-.007812.113282-.007812.171876 0 .75.355468 1.410156.910156 1.824218v-.34375c-.511719-.382812-.855469-.972656-.902344-1.652344zm4.535156 0c-.050781.679688-.394531 1.269532-.90625 1.652344v.34375c.554688-.414062.910156-1.074218.910156-1.824218 0-.058594 0-.113282-.003906-.171876zm0 0" fill="#fff" fill-opacity=".392157"/><path d="m6.375 4.09375c-.003906.054688-.007812.113281-.007812.171875 0 .746094.355468 1.40625.910156 1.820313v-.339844c-.511719-.382813-.855469-.976563-.902344-1.652344zm4.535156 0c-.050781.675781-.394531 1.269531-.90625 1.652344v.339844c.554688-.414063.910156-1.074219.910156-1.820313 0-.058594 0-.117187-.003906-.171875zm-5.90625 5.742188c-.75 0-1.410156.355468-1.824218.910156h-.449219v.339844h.449219c.414062-.550782 1.074218-.910157 1.824218-.910157 1.203125 0 2.179688.925781 2.265625 2.105469.003907-.058594.007813-.113281.007813-.171875 0-1.257813-1.015625-2.273437-2.273438-2.273437zm14.089844 2.445312c-.085938 1.179688-1.0625 2.101562-2.265625 2.101562-.746094 0-1.410156-.355468-1.824219-.90625h-.449218v.339844h.449218c.414063.550782 1.078125.910156 1.824219.910156 1.257813 0 2.273437-1.015624 2.273437-2.273437 0-.058594-.003906-.117187-.007812-.171875zm-10.453125 1.195312c-1.257813 0-2.273437 1.011719-2.273437 2.273438 0 .054688.003906.113281.007812.167969.085938-1.179688 1.0625-2.101563 2.265625-2.101563s2.179687.921875 2.269531 2.101563c.003906-.054688.003906-.113281.003906-.167969 0-1.261719-1.011718-2.273438-2.273437-2.273438zm-5.910156 4.089844v.34375c0 .25.199219.453125.453125.453125h4.09375v-.339843h-4.09375c-.253906 0-.453125-.203126-.453125-.457032zm11.824219 0c0 .253906-.203126.457032-.457032.457032h-4.09375v.339843h4.09375c.253906 0 .457032-.203125.457032-.453125zm0 0" fill-opacity=".235294"/><path d="m759.956101 175.215918c-110.626521 0-199.952284 88.982202-199.952284 199.952284 0 65.620079 31.264017 123.681824 80.049626 160.09925v39.853033h-360.051534c-22.331441 0-39.853033 17.865152-39.853033 39.853032v360.051534h39.509472c36.417426-48.442048 94.479172-80.049625 160.442811-80.049625 110.626521 0 199.952284 89.325762 199.952284 200.295844 0 110.626521-89.325763 199.952283-199.952284 199.952283-65.963639 0-124.025385-31.607577-160.442811-80.049625h-39.509472v360.051534c0 21.98788 17.521592 39.853032 39.853033 39.853032h360.051534v-39.853032c-48.785609-36.417427-80.049626-94.479172-80.049626-160.099251 0-110.970082 89.325763-199.952283 199.952284-199.952283 110.970081 0 199.952283 88.982201 199.952283 199.952283 0 65.620079-31.264017 123.681824-80.049626 160.099251v39.853032h360.051534c22.331441 0 40.196593-17.865152 40.196593-39.853032v-360.051534h39.509472c36.417426 48.442048 94.822733 80.049625 160.442812 80.049625 110.626521 0 199.952283-89.325762 199.952283-199.952283 0-110.970082-89.325762-200.295844-199.952283-200.295844-65.620079 0-124.025386 31.607577-160.442812 80.049625h-39.509472v-360.051534c0-21.98788-17.865152-39.853032-40.196593-39.853032h-360.051534v-39.853033c48.785609-36.417426 80.049626-94.479171 80.049626-160.09925 0-110.970082-88.982202-199.952284-199.952283-199.952284zm0 0" fill="none" stroke="#212121" stroke-linecap="round" stroke-linejoin="round" stroke-width="11.338583" transform="scale(.0113699)"/></svg>

<?xml version="1.0" encoding="UTF-8"?>
<svg xmlns="http://www.w3.org/2000/svg" xmlns:xlink="http://www.w3.org/1999/xlink" width="22px" height="22px" viewBox="0 0 22 22" version="1.1">
<defs>
<linearGradient id="linear0" gradientUnits="userSpaceOnUse" x1="254" y1="233.5" x2="254" y2="254.666672" gradientTransform="matrix(0.0096689,0,0,0.0429729,2.660556,8.329573)">
<stop offset="0" style="stop-color:rgb(0%,0%,0%);stop-opacity:0.27451;"/>
<stop offset="1" style="stop-color:rgb(0%,0%,0%);stop-opacity:0;"/>
</linearGradient>
<radialGradient id="radial0" gradientUnits="userSpaceOnUse" cx="450.908936" cy="189.579361" fx="450.908936" fy="189.579361" r="21.166656" gradientTransform="matrix(0.000000119742,-0.0537161,-0.0966889,-0.0000000698078,24.242525,42.8122)">
<stop offset="0" style="stop-color:rgb(0%,0%,0%);stop-opacity:0.313726;"/>
<stop offset="0.222222" style="stop-color:rgb(0%,0%,0%);stop-opacity:0.27451;"/>
<stop offset="1" style="stop-color:rgb(0%,0%,0%);stop-opacity:0;"/>
</radialGradient>
<radialGradient id="radial1" gradientUnits="userSpaceOnUse" cx="450.908936" cy="189.579361" fx="450.908936" fy="189.579361" r="21.166656" gradientTransform="matrix(-0.000000119742,0.0537161,0.0966889,0.0000000698078,-14.009612,-6.084733)">
<stop offset="0" style="stop-color:rgb(0%,0%,0%);stop-opacity:0.313726;"/>
<stop offset="0.222222" style="stop-color:rgb(0%,0%,0%);stop-opacity:0.27451;"/>
<stop offset="1" style="stop-color:rgb(0%,0%,0%);stop-opacity:0;"/>
</radialGradient>
<radialGradient id="radial2" gradientUnits="userSpaceOnUse" cx="450.908936" cy="189.579361" fx="450.908936" fy="189.579361" r="21.166656" gradientTransform="matrix(-0.000000119742,-0.0537161,0.0966889,-0.0000000698078,-14.009612,42.8122)">
<stop offset="0" style="stop-color:rgb(0%,0%,0%);stop-opacity:0.313726;"/>
<stop offset="0.222222" style="stop-color:rgb(0%,0%,0%);stop-opacity:0.27451;"/>
<stop offset="1" style="stop-color:rgb(0%,0%,0%);stop-opacity:0;"/>
</radialGradient>
<radialGradient id="radial3" gradientUnits="userSpaceOnUse" cx="450.908936" cy="189.579361" fx="450.908936" fy="189.579361" r="21.166656" gradientTransform="matrix(0.000000119742,0.0537161,-0.0966889,0.0000000698078,24.242522,-6.084734)">
<stop offset="0" style="stop-color:rgb(0%,0%,0%);stop-opacity:0.313726;"/>
<stop offset="0.222222" style="stop-color:rgb(0%,0%,0%);stop-opacity:0.27451;"/>
<stop offset="1" style="stop-color:rgb(0%,0%,0%);stop-opacity:0;"/>
</radialGradient>
<linearGradient id="linear1" gradientUnits="userSpaceOnUse" x1="254" y1="233.5" x2="254" y2="254.666672" gradientTransform="matrix(0.0096689,0,0,0.0429729,9.937294,8.329573)">
<stop offset="0" style="stop-color:rgb(0%,0%,0%);stop-opacity:0.27451;"/>
<stop offset="1" style="stop-color:rgb(0%,0%,0%);stop-opacity:0;"/>
</linearGradient>
<radialGradient id="radial4" gradientUnits="userSpaceOnUse" cx="450.908936" cy="189.579361" fx="450.908936" fy="189.579361" r="21.166656" gradientTransform="matrix(0.000000119742,-0.0537161,-0.0966889,-0.0000000698078,31.519263,42.8122)">
<stop offset="0" style="stop-color:rgb(0%,0%,0%);stop-opacity:0.313726;"/>
<stop offset="0.222222" style="stop-color:rgb(0%,0%,0%);stop-opacity:0.27451;"/>
<stop offset="1" style="stop-color:rgb(0%,0%,0%);stop-opacity:0;"/>
</radialGradient>
<radialGradient id="radial5" gradientUnits="userSpaceOnUse" cx="450.908936" cy="189.579361" fx="450.908936" fy="189.579361" r="21.166656" gradientTransform="matrix(-0.000000119742,0.0537161,0.0966889,0.0000000698078,-6.732874,-6.084733)">
<stop offset="0" style="stop-color:rgb(0%,0%,0%);stop-opacity:0.313726;"/>
<stop offset="0.222222" style="stop-color:rgb(0%,0%,0%);stop-opacity:0.27451;"/>
<stop offset="1" style="stop-color:rgb(0%,0%,0%);stop-opacity:0;"/>
</radialGradient>
<radialGradient id="radial6" gradientUnits="userSpaceOnUse" cx="450.908936" cy="189.579361" fx="450.908936" fy="189.579361" r="21.166656" gradientTransform="matrix(-0.000000119742,-0.0537161,0.0966889,-0.0000000698078,-6.732874,42.8122)">
<stop offset="0" style="stop-color:rgb(0%,0%,0%);stop-opacity:0.313726;"/>
<stop offset="0.222222" style="stop-color:rgb(0%,0%,0%);stop-opacity:0.27451;"/>
<stop offset="1" style="stop-color:rgb(0%,0%,0%);stop-opacity:0;"/>
</radialGradient>
<radialGradient id="radial7" gradientUnits="userSpaceOnUse" cx="450.908936" cy="189.579361" fx="450.908936" fy="189.579361" r="21.166656" gradientTransform="matrix(0.000000119742,0.0537161,-0.0966889,0.0000000698078,31.519261,-6.084734)">
<stop offset="0" style="stop-color:rgb(0%,0%,0%);stop-opacity:0.313726;"/>
<stop offset="0.222222" style="stop-color:rgb(0%,0%,0%);stop-opacity:0.27451;"/>
<stop offset="1" style="stop-color:rgb(0%,0%,0%);stop-opacity:0;"/>
</radialGradient>
<linearGradient id="linear2" gradientUnits="userSpaceOnUse" x1="760" y1="1615.118164" x2="760" y2="175.118134" gradientTransform="matrix(0.0113699,0,0,0.0113699,0,0)">
<stop offset="0" style="stop-color:rgb(36.078432%,41.960785%,75.294119%);stop-opacity:1;"/>
<stop offset="1" style="stop-color:rgb(47.450981%,52.549022%,79.607844%);stop-opacity:1;"/>
</linearGradient>
</defs>
<g id="surface1">
<path style=" stroke:none;fill-rule:nonzero;fill:url(#linear0);" d="M 4.09375 18.363281 L 6.140625 18.363281 L 6.140625 19.273438 L 4.09375 19.273438 Z M 4.09375 18.363281 "/>
<path style=" stroke:none;fill-rule:nonzero;fill:url(#radial0);" d="M 6.140625 18.363281 L 7.957031 18.363281 L 7.957031 17.453125 L 6.140625 17.453125 Z M 6.140625 18.363281 "/>
<path style=" stroke:none;fill-rule:nonzero;fill:url(#radial1);" d="M 4.09375 18.363281 L 2.273438 18.363281 L 2.273438 19.273438 L 4.09375 19.273438 Z M 4.09375 18.363281 "/>
<path style=" stroke:none;fill-rule:nonzero;fill:url(#radial2);" d="M 4.09375 18.363281 L 2.273438 18.363281 L 2.273438 17.453125 L 4.09375 17.453125 Z M 4.09375 18.363281 "/>
<path style=" stroke:none;fill-rule:nonzero;fill:url(#radial3);" d="M 6.140625 18.363281 L 7.957031 18.363281 L 7.957031 19.273438 L 6.140625 19.273438 Z M 6.140625 18.363281 "/>
<path style=" stroke:none;fill-rule:nonzero;fill:url(#linear1);" d="M 11.371094 18.363281 L 13.417969 18.363281 L 13.417969 19.273438 L 11.371094 19.273438 Z M 11.371094 18.363281 "/>
<path style=" stroke:none;fill-rule:nonzero;fill:url(#radial4);" d="M 13.417969 18.363281 L 15.234375 18.363281 L 15.234375 17.453125 L 13.417969 17.453125 Z M 13.417969 18.363281 "/>
<path style=" stroke:none;fill-rule:nonzero;fill:url(#radial5);" d="M 11.371094 18.363281 L 9.550781 18.363281 L 9.550781 19.273438 L 11.371094 19.273438 Z M 11.371094 18.363281 "/>
<path style=" stroke:none;fill-rule:nonzero;fill:url(#radial6);" d="M 11.371094 18.363281 L 9.550781 18.363281 L 9.550781 17.453125 L 11.371094 17.453125 Z M 11.371094 18.363281 "/>
<path style=" stroke:none;fill-rule:nonzero;fill:url(#radial7);" d="M 13.417969 18.363281 L 15.234375 18.363281 L 15.234375 19.273438 L 13.417969 19.273438 Z M 13.417969 18.363281 "/>
<path style=" stroke:none;fill-rule:nonzero;fill:url(#linear2);" d="M 8.640625 1.992188 C 7.382812 1.992188 6.367188 3.003906 6.367188 4.265625 C 6.367188 5.011719 6.722656 5.671875 7.277344 6.085938 L 7.277344 6.539062 L 3.183594 6.539062 C 2.929688 6.539062 2.730469 6.742188 2.730469 6.992188 L 2.730469 11.085938 L 3.179688 11.085938 C 3.59375 10.535156 4.253906 10.175781 5.003906 10.175781 C 6.261719 10.175781 7.277344 11.191406 7.277344 12.453125 C 7.277344 13.710938 6.261719 14.726562 5.003906 14.726562 C 4.253906 14.726562 3.59375 14.367188 3.179688 13.816406 L 2.730469 13.816406 L 2.730469 17.910156 C 2.730469 18.160156 2.929688 18.363281 3.183594 18.363281 L 7.277344 18.363281 L 7.277344 17.910156 C 6.722656 17.496094 6.367188 16.835938 6.367188 16.089844 C 6.367188 14.828125 7.382812 13.816406 8.640625 13.816406 C 9.902344 13.816406 10.914062 14.828125 10.914062 16.089844 C 10.914062 16.835938 10.558594 17.496094 10.003906 17.910156 L 10.003906 18.363281 L 14.097656 18.363281 C 14.351562 18.363281 14.554688 18.160156 14.554688 17.910156 L 14.554688 13.816406 L 15.003906 13.816406 C 15.417969 14.367188 16.082031 14.726562 16.828125 14.726562 C 18.085938 14.726562 19.101562 13.710938 19.101562 12.453125 C 19.101562 11.191406 18.085938 10.175781 16.828125 10.175781 C 16.082031 10.175781 15.417969 10.535156 15.003906 11.085938 L 14.554688 11.085938 L 14.554688 6.992188 C 14.554688 6.742188 14.351562 6.539062 14.097656 6.539062 L 10.003906 6.539062 L 10.003906 6.085938 C 10.558594 5.671875 10.914062 5.011719 10.914062 4.265625 C 10.914062 3.003906 9.902344 1.992188 8.640625 1.992188 Z M 8.640625 1.992188 "/>
<path style=" stroke:none;fill-rule:nonzero;fill:rgb(100%,100%,100%);fill-opacity:0.392157;" d="M 8.640625 1.992188 C 7.382812 1.992188 6.367188 3.003906 6.367188 4.265625 C 6.367188 4.320312 6.371094 4.378906 6.375 4.433594 C 6.460938 3.253906 7.4375 2.332031 8.640625 2.332031 C 9.84375 2.332031 10.820312 3.253906 10.910156 4.433594 C 10.914062 4.378906 10.914062 4.320312 10.914062 4.265625 C 10.914062 3.003906 9.902344 1.992188 8.640625 1.992188 Z M 3.183594 6.539062 C 2.929688 6.539062 2.730469 6.742188 2.730469 6.992188 L 2.730469 7.335938 C 2.730469 7.082031 2.929688 6.878906 3.183594 6.878906 L 7.277344 6.878906 L 7.277344 6.539062 Z M 10.003906 6.539062 L 10.003906 6.878906 L 14.097656 6.878906 C 14.351562 6.878906 14.554688 7.082031 14.554688 7.335938 L 14.554688 6.992188 C 14.554688 6.742188 14.351562 6.539062 14.097656 6.539062 Z M 16.828125 10.175781 C 16.082031 10.175781 15.417969 10.535156 15.003906 11.085938 L 14.554688 11.085938 L 14.554688 11.429688 L 15.003906 11.429688 C 15.417969 10.875 16.082031 10.519531 16.828125 10.519531 C 18.03125 10.519531 19.007812 11.441406 19.09375 12.621094 C 19.097656 12.566406 19.101562 12.507812 19.101562 12.453125 C 19.101562 11.191406 18.085938 10.175781 16.828125 10.175781 Z M 7.269531 12.621094 C 7.183594 13.800781 6.207031 14.726562 5.003906 14.726562 C 4.253906 14.726562 3.59375 14.367188 3.179688 13.816406 L 2.730469 13.816406 L 2.730469 14.15625 L 3.179688 14.15625 C 3.59375 14.710938 4.253906 15.066406 5.003906 15.066406 C 6.261719 15.066406 7.277344 14.050781 7.277344 12.792969 C 7.277344 12.734375 7.273438 12.679688 7.269531 12.621094 Z M 6.375 16.257812 C 6.371094 16.316406 6.367188 16.371094 6.367188 16.429688 C 6.367188 17.179688 6.722656 17.839844 7.277344 18.253906 L 7.277344 17.910156 C 6.765625 17.527344 6.421875 16.9375 6.375 16.257812 Z M 10.910156 16.257812 C 10.859375 16.9375 10.515625 17.527344 10.003906 17.910156 L 10.003906 18.253906 C 10.558594 17.839844 10.914062 17.179688 10.914062 16.429688 C 10.914062 16.371094 10.914062 16.316406 10.910156 16.257812 Z M 10.910156 16.257812 "/>
<path style=" stroke:none;fill-rule:nonzero;fill:rgb(0%,0%,0%);fill-opacity:0.235294;" d="M 6.375 4.09375 C 6.371094 4.148438 6.367188 4.207031 6.367188 4.265625 C 6.367188 5.011719 6.722656 5.671875 7.277344 6.085938 L 7.277344 5.746094 C 6.765625 5.363281 6.421875 4.769531 6.375 4.09375 Z M 10.910156 4.09375 C 10.859375 4.769531 10.515625 5.363281 10.003906 5.746094 L 10.003906 6.085938 C 10.558594 5.671875 10.914062 5.011719 10.914062 4.265625 C 10.914062 4.207031 10.914062 4.148438 10.910156 4.09375 Z M 5.003906 9.835938 C 4.253906 9.835938 3.59375 10.191406 3.179688 10.746094 L 2.730469 10.746094 L 2.730469 11.085938 L 3.179688 11.085938 C 3.59375 10.535156 4.253906 10.175781 5.003906 10.175781 C 6.207031 10.175781 7.183594 11.101562 7.269531 12.28125 C 7.273438 12.222656 7.277344 12.167969 7.277344 12.109375 C 7.277344 10.851562 6.261719 9.835938 5.003906 9.835938 Z M 19.09375 12.28125 C 19.007812 13.460938 18.03125 14.382812 16.828125 14.382812 C 16.082031 14.382812 15.417969 14.027344 15.003906 13.476562 L 14.554688 13.476562 L 14.554688 13.816406 L 15.003906 13.816406 C 15.417969 14.367188 16.082031 14.726562 16.828125 14.726562 C 18.085938 14.726562 19.101562 13.710938 19.101562 12.453125 C 19.101562 12.394531 19.097656 12.335938 19.09375 12.28125 Z M 8.640625 13.476562 C 7.382812 13.476562 6.367188 14.488281 6.367188 15.75 C 6.367188 15.804688 6.371094 15.863281 6.375 15.917969 C 6.460938 14.738281 7.4375 13.816406 8.640625 13.816406 C 9.84375 13.816406 10.820312 14.738281 10.910156 15.917969 C 10.914062 15.863281 10.914062 15.804688 10.914062 15.75 C 10.914062 14.488281 9.902344 13.476562 8.640625 13.476562 Z M 2.730469 17.566406 L 2.730469 17.910156 C 2.730469 18.160156 2.929688 18.363281 3.183594 18.363281 L 7.277344 18.363281 L 7.277344 18.023438 L 3.183594 18.023438 C 2.929688 18.023438 2.730469 17.820312 2.730469 17.566406 Z M 14.554688 17.566406 C 14.554688 17.820312 14.351562 18.023438 14.097656 18.023438 L 10.003906 18.023438 L 10.003906 18.363281 L 14.097656 18.363281 C 14.351562 18.363281 14.554688 18.160156 14.554688 17.910156 Z M 14.554688 17.566406 "/>
<path style="fill:none;stroke-width:11.338583;stroke-linecap:round;stroke-linejoin:round;stroke:rgb(12.941177%,12.941177%,12.941177%);stroke-opacity:1;stroke-miterlimit:4;" d="M 759.956101 175.215918 C 649.32958 175.215918 560.003817 264.19812 560.003817 375.168202 C 560.003817 440.788281 591.267834 498.850026 640.053443 535.267452 L 640.053443 575.120485 L 280.001909 575.120485 C 257.670468 575.120485 240.148876 592.985637 240.148876 614.973517 L 240.148876 975.025051 L 279.658348 975.025051 C 316.075774 926.583003 374.13752 894.975426 440.101159 894.975426 C 550.72768 894.975426 640.053443 984.301188 640.053443 1095.27127 C 640.053443 1205.897791 550.72768 1295.223553 440.101159 1295.223553 C 374.13752 1295.223553 316.075774 1263.615976 279.658348 1215.173928 L 240.148876 1215.173928 L 240.148876 1575.225462 C 240.148876 1597.213342 257.670468 1615.078494 280.001909 1615.078494 L 640.053443 1615.078494 L 640.053443 1575.225462 C 591.267834 1538.808035 560.003817 1480.74629 560.003817 1415.126211 C 560.003817 1304.156129 649.32958 1215.173928 759.956101 1215.173928 C 870.926182 1215.173928 959.908384 1304.156129 959.908384 1415.126211 C 959.908384 1480.74629 928.644367 1538.808035 879.858758 1575.225462 L 879.858758 1615.078494 L 1239.910292 1615.078494 C 1262.241733 1615.078494 1280.106885 1597.213342 1280.106885 1575.225462 L 1280.106885 1215.173928 L 1319.616357 1215.173928 C 1356.033783 1263.615976 1414.43909 1295.223553 1480.059169 1295.223553 C 1590.68569 1295.223553 1680.011452 1205.897791 1680.011452 1095.27127 C 1680.011452 984.301188 1590.68569 894.975426 1480.059169 894.975426 C 1414.43909 894.975426 1356.033783 926.583003 1319.616357 975.025051 L 1280.106885 975.025051 L 1280.106885 614.973517 C 1280.106885 592.985637 1262.241733 575.120485 1239.910292 575.120485 L 879.858758 575.120485 L 879.858758 535.267452 C 928.644367 498.850026 959.908384 440.788281 959.908384 375.168202 C 959.908384 264.19812 870.926182 175.215918 759.956101 175.215918 Z M 759.956101 175.215918 " transform="matrix(0.0113699,0,0,0.0113699,0,0)"/>
</g>
</svg>
